svgs/light/hands-asl-interpreting.svg

<svg xmlns="http://www.w3.org/2000/svg" viewBox="0 0 640 512"><!--! Font Awesome Pro 6.3.0 by @fontawesome - https://fontawesome.com License - https://fontawesome.com/license (Commercial License) Copyright 2023 Fonticons, Inc. --><path d="M311.1 294.4C310.2 289.9 308.7 285.6 306.7 281.6C309.7 278.2 312.2 274.4 314.2 270.3c6.062-12.44 6.797-26.43 2.068-39.4C310.8 216 302.5 202.7 291.8 191.5l21.67-6.006c27.93-7.75 44.57-36.16 36.4-63.86c-6.549-22.28-28.28-38.41-53.33-37.31c9.545-11.31 21.94-40.55-.8555-66.35C285.6 6.533 271 0 255.6 0C231.4-.0039 221.4 12.23 190.8 37.66C180.4 1.934 145.3 .0098 139.8 .0098c-20.56-.002-39.43 11.73-48.08 29.89L15.62 195.2C5.256 217.7 0 241.6 0 266.2C0 331.2 54.37 384 121.2 384l92.11-.0586c35.95-2.506 69.5-21.5 89.74-50.8C310.9 321.7 313.8 307.9 311.1 294.4zM245.9 254.4C239.6 237.4 222.9 225.9 204.2 225.9c-24.37 0-44.19 19.22-44.19 42.85s19.82 42.85 44.19 42.85c14.76 0 28.49-7.119 36.73-19.03c15.44-22.26 50.98 .2246 35.63 22.43C261.8 336.4 237.3 350.2 211.6 352H121.2C72.02 352 31.1 313.3 31.1 265.7c0-20.13 4.303-39.66 12.79-58.04l75.97-164.6c11.61-24.34 49.62-7.385 38.09 16.87L123.2 134.8l118.8-98.53c20.96-17.45 48.34 13.21 27.32 30.64L168.1 150.8l125.2-34.62c26.71-7.436 37.98 31.51 11.55 38.84l-97.06 26.84l24.62 8.039c25.33 8.271 44.93 26.89 53.77 51.09C295.3 266.1 255.1 279.9 245.9 254.4zM216 268c0 6.627-5.373 12-12 12S192 274.6 192 268S197.4 256 204 256S216 261.4 216 268zM518.8 128l-92.11 .0586c-35.95 2.506-69.5 21.5-89.74 50.8c-7.904 11.46-10.75 25.21-8.02 38.75c.9023 4.473 2.377 8.746 4.371 12.74c-2.965 3.402-5.492 7.205-7.512 11.35C319.7 254.1 319 268.1 323.7 281.1c5.424 14.87 13.77 28.21 24.43 39.43l-21.67 6.006c-27.93 7.75-44.57 36.16-36.4 63.86c6.549 22.28 28.28 38.41 53.33 37.31c-9.545 11.31-21.94 40.55 .8555 66.35C354.4 505.5 368.1 512 384.4 512c24.14 .0039 34.19-12.23 64.79-37.66c10.35 35.73 45.53 37.65 50.95 37.65c20.56 .002 39.43-11.73 48.08-29.89l76.14-165.3c10.37-22.5 15.62-46.4 15.62-71.05C640 180.8 585.6 128 518.8 128zM595.2 304.3l-75.97 164.6c-11.61 24.34-49.62 7.385-38.09-16.87l35.65-74.77l-118.8 98.53c-20.96 17.45-48.34-13.21-27.32-30.64l101.2-83.95l-125.2 34.62c-26.71 7.436-37.98-31.51-11.55-38.84l97.06-26.84l-24.62-8.039c-25.33-8.271-44.93-26.89-53.77-51.09c-9.152-25.07 30.99-38.88 40.29-13.43c6.236 17.07 22.98 28.54 41.67 28.54c24.37 0 44.19-19.22 44.19-42.85s-19.82-42.85-44.19-42.85c-14.76 0-28.49 7.119-36.73 19.03c-15.44 22.26-50.98-.2246-35.63-22.43C378.2 175.6 402.7 161.8 428.4 160h90.4c49.18 0 89.2 38.7 89.2 86.27C608 266.4 603.7 285.9 595.2 304.3zM424 244c0-6.627 5.373-12 12-12s12 5.373 12 12S442.6 256 436 256S424 250.6 424 244z"/></svg>

<svg xmlns="http://www.w3.org/2000/svg" viewBox="0 0 640 512"><!-- Font Awesome Pro 6.0.0-alpha2 by @fontawesome - https://fontawesome.com License - https://fontawesome.com/license (Commercial License) --><path d="M311.064 294.385C310.162 289.912 308.688 285.639 306.693 281.648C309.658 278.246 312.186 274.443 314.205 270.303C320.268 257.867 321.002 243.875 316.273 230.898C310.85 216.029 302.504 202.689 291.848 191.469L313.52 185.463C341.445 177.713 358.086 149.307 349.92 121.602C343.371 99.326 321.639 83.189 296.588 84.291C306.133 72.984 318.531 43.744 295.732 17.937C285.646 6.533 271.012 0 255.574 0C231.432 -0.004 221.383 12.227 190.787 37.664C180.436 1.934 145.258 0.01 139.834 0.01C119.271 0.008 100.4 11.74 91.758 29.898L15.621 195.16C5.256 217.656 0 241.561 0 266.209C0 331.16 54.369 384 121.197 384H212.451L213.303 383.941C249.25 381.436 282.801 362.443 303.045 333.137C310.949 321.68 313.795 307.922 311.064 294.385ZM245.852 254.438C239.615 237.365 222.867 225.893 204.18 225.893C179.814 225.893 159.992 245.115 159.992 268.742S179.814 311.594 204.18 311.594C218.939 311.594 232.672 304.475 240.912 292.561C256.355 270.297 291.896 292.785 276.545 314.988C261.758 336.354 237.268 350.195 211.6 352H121.197C72.016 352 31.998 313.301 31.998 265.732C31.998 245.602 36.301 226.074 44.785 207.697L120.758 43.121C132.369 18.781 170.379 35.736 158.846 59.994L123.193 134.766L241.947 36.234C262.902 18.789 290.291 49.445 269.27 66.873L168.09 150.826L293.262 116.207C319.977 108.771 331.244 147.719 304.811 155.047L207.754 181.885L232.369 189.924C257.697 198.195 277.297 216.816 286.137 241.01C295.289 266.076 255.148 279.887 245.852 254.438ZM216 268C216 274.627 210.627 280 204 280S192 274.627 192 268S197.373 256 204 256S216 261.373 216 268ZM518.805 128H427.551L426.699 128.059C390.752 130.564 357.201 149.557 336.957 178.863C329.053 190.32 326.207 204.078 328.937 217.615C329.84 222.088 331.314 226.361 333.309 230.352C330.344 233.754 327.816 237.557 325.797 241.697C319.734 254.133 319 268.125 323.729 281.102C329.152 295.971 337.498 309.311 348.154 320.531L326.482 326.537C298.557 334.287 281.916 362.693 290.082 390.398C296.631 412.674 318.363 428.811 343.414 427.709C333.869 439.016 321.471 468.256 344.27 494.062C354.355 505.467 368.99 512 384.428 512C408.57 512.004 418.619 499.773 449.215 474.336C459.566 510.066 494.744 511.99 500.168 511.99C520.73 511.992 539.602 500.26 548.244 482.102L624.381 316.84C634.746 294.344 640.002 270.439 640.002 245.791C640.002 180.84 585.633 128 518.805 128ZM595.217 304.303L519.244 468.879C507.633 493.219 469.623 476.264 481.156 452.006L516.809 377.234L398.055 475.766C377.1 493.211 349.711 462.555 370.732 445.127L471.912 361.174L346.74 395.793C320.025 403.229 308.758 364.281 335.191 356.953L432.248 330.115L407.633 322.076C382.305 313.805 362.705 295.184 353.865 270.99C344.713 245.924 384.854 232.113 394.15 257.562C400.387 274.635 417.135 286.107 435.822 286.107C460.187 286.107 480.01 266.885 480.01 243.258S460.187 200.406 435.822 200.406C421.062 200.406 407.33 207.525 399.09 219.439C383.646 241.703 348.105 219.215 363.457 197.012C378.244 175.646 402.734 161.805 428.402 160H518.805C567.986 160 608.004 198.699 608.004 246.268C608.004 266.398 603.701 285.926 595.217 304.303ZM424.002 244C424.002 237.373 429.375 232 436.002 232S448.002 237.373 448.002 244S442.629 256 436.002 256S424.002 250.627 424.002 244Z"/></svg>
